X: 146
T: REEL: New Mown Meadows (Amix)
C: C: Trad.; S: Noel Hill
C: Set Leaders: Tania, Anton, Sophie
Z: Anton Zille ed., Oleg Naumov arr.; Kenny at The Session
N: https://thesession.org/members/26966/sets/92390
R: Reel
M: 4/4
L: 1/8
Q: 1/2=100
K: Amix
|:"A5"eA~A2 BABd|"A5"egfd "G"edBd|"A5"eA~A2 BABd|"G"dfed Bcdf|
"A5"eAAG A2 Bd|"A5"e/f/g fd edBd|"G"~g3e "D/F#"~f3e|"G"dfed "Em (A)"Bcdf:||
|:"D"a2 fa bafa|"D"a/b/a fd "G"edBd|"D"~a2 fa baaf|"G"dfed "A"Bcdf|
"D"a2 fa bafa|"D"a/b/a fd "G"edBd|"G"~g3e "D/F#"~f3e|"Em"dfed "D (A)"Bcdf:||

